X: 42601
T: Where's Me Glasses
R: hornpipe
M: 4/4
K: Gmajor
ba|:gfge dcBc|^cdef ~g2fg|agfe defg|agfe~d2ba|
gfge dcBc|^cdef (3gag fg|agfe d^c=cA|1 Gd(3cBA G2ba:|2 Gd(3cBA G2FG||
|:A^GAB cBA=G|A^GAB (3cdc BA|~G2G,2G,E =FE|~D2G,2G,2FG|
[1A^GAB (3cdc(3Bcd|e^def geae|(3bc'bag fd ef|g2d2G2FG:|
[2A^GAB (3cdc(3Bcd|e^def g^gab|c'bag fdef|g2b2g2||

